X:8899
T:La Cruz de Mayu (XA 20)
R:Marcha
C:Tradicional
S:Música Tradicional Asturiana, (C) Tello & Tito. Asturies, 2001.
S:http://pagina.de/MusTradAst <telloytito@asturies.org>
A:Asturies
G:Arrg.
Z:Métodu de Xuacu Amieva 20
E:2 Voces
M:4/4
L:1/8
Q:1/4=108
K:C
V:1
~E>G
|: c>B A>G F>E F>A|G>A G>E C2 ~G2|F>G F>D B,2 ~A2|G>A G>E C2 ~E>G |
|c>B A>G F>E F>A|G>A G>E C2 ~G2|F>G F>D B,>D G>E|[1 C6 ~E>G :|[2 C6 ~E2|
|: D>C B,>C D>E F>G|E>F E>D C2 ~E2|D>E D>C B,2 ~A2|G>A G>E C2 ~E2|
|D>C B,>C D>E F>G|E>F E>D C2 ~E2|D>E D>C B,>D G>E|[1 C6 ~E2 :|[2 C6 z2||
V:2
C>E|
|: A>G F>E D>C D>F|E>F E>G E2 E2|D>E D>B, D2 F2|E>F E>C G2 C>E|
|A>G F>E D>C D>F|E>F E>G E2 E2|D>E D>B, D>F G>G|[1 E6 C>E :|[2 E6 ~G2|
|: F>E D>E F>G A>B|G>A G>F E2 ~G2|F>G F>E D2 c2|B>c B>G E2 ~G2|
|F>E D>E F>G A>B|G>A G>F E2 ~G2|F>G F>E D>F G>G|[1 E6 ~G2 :|[2 E6 z2||


